src/assets/images/ic_categories_placeholder.svg

<svg xmlns="http://www.w3.org/2000/svg" width="80" height="80" fill="none" viewBox="0 0 80 80">
    <circle cx="40" cy="40" r="40" fill="#F3F3F3"/>
    <g clip-path="url(#clip0)">
        <path fill="#D9D9D9" d="M27.827 36.255h-2.813v2.58H24v1.783h1.014v3.848c0 1.877.969 2.44 2.86 2.44.506 0 .968-.094 1.429-.188V44.56c-.923.047-1.43.047-1.43-.75v-3.192h1.476v-1.782h-1.522v-2.581zM32.946 38.836H30.04v7.93h2.905v-7.93zM32.946 35.645H30.04v2.206h2.905v-2.206zM37.924 44.936c-.876 0-1.337-.798-1.337-2.112 0-1.313.415-2.158 1.291-2.158.646 0 .968.422 1.107 1.126h2.766c-.184-1.83-1.66-3.144-3.873-3.144-2.582 0-4.288 1.783-4.288 4.223 0 2.393 1.706 4.176 4.288 4.176 2.352 0 3.92-1.501 3.92-3.425H39.03c-.046.845-.415 1.314-1.107 1.314zM50.42 38.836H47.19l-1.844 2.346v-5.537h-2.859v11.12h2.86V44.56l.552-.656 1.568 2.862h3.274l-2.905-5.02 2.582-2.91zM56 40.618v-1.782h-1.476v-2.581h-2.86v2.58H50.65v1.783h1.015v3.848c0 1.877.968 2.44 2.859 2.44.507 0 .968-.094 1.429-.188V44.56c-.922.047-1.43.047-1.43-.75v-3.192H56zM52.633 31l-3.965 3.237-2.121-1.36 2.12 3.378L52.634 31z"/>
    </g>
    <defs>
        <clipPath id="clip0">
            <path fill="#fff" d="M0 0H32V16H0z" transform="translate(24 31)"/>
        </clipPath>
    </defs>
</svg>

<svg id="tickt_transparent" xmlns="http://www.w3.org/2000/svg" xmlns:xlink="http://www.w3.org/1999/xlink" width="450" height="450" viewBox="0 0 80 80">
  <defs>
    <clipPath id="clip-path">
      <path id="Path_72374" data-name="Path 72374" d="M0,0H32V16H0Z" transform="translate(24 31)" fill="#fff"/>
    </clipPath>
  </defs>
  <rect id="Rectangle_4687" data-name="Rectangle 4687" width="80" height="80" fill="none"/>
  <circle id="Ellipse_2665" data-name="Ellipse 2665" cx="40" cy="40" r="40" fill="none"/>
  <g id="Group_17967" data-name="Group 17967" clip-path="url(#clip-path)">
    <path id="Path_72373" data-name="Path 72373" d="M27.827,36.255H25.014v2.58H24v1.783h1.014v3.848c0,1.877.969,2.44,2.86,2.44a7.007,7.007,0,0,0,1.429-.188V44.56c-.923.047-1.43.047-1.43-.75V40.618h1.476V38.836H27.827V36.255Zm5.119,2.581H30.04v7.93h2.9v-7.93Zm0-3.191H30.04v2.206h2.9V35.645Zm4.978,9.291c-.876,0-1.337-.8-1.337-2.112s.415-2.158,1.291-2.158c.646,0,.968.422,1.107,1.126h2.766a3.57,3.57,0,0,0-3.873-3.144,4.2,4.2,0,1,0,0,8.4c2.352,0,3.92-1.5,3.92-3.425H39.03c-.046.845-.415,1.314-1.107,1.314Zm12.5-6.1H47.19l-1.844,2.346V35.645H42.487v11.12h2.86v-2.2L45.9,43.9l1.568,2.862h3.274l-2.9-5.02,2.582-2.91ZM56,40.618V38.836H54.524V36.255h-2.86v2.58H50.65v1.783h1.015v3.848c0,1.877.968,2.44,2.859,2.44a7,7,0,0,0,1.429-.188V44.56c-.922.047-1.43.047-1.43-.75V40.618ZM52.633,31l-3.965,3.237-2.121-1.36,2.12,3.378L52.634,31Z" fill="#fff"/>
  </g>
</svg>
